ES3T1/39/aimg/1_quees.svg

<svg clip-rule="evenodd" fill-rule="evenodd" stroke-linejoin="round" stroke-miterlimit="2" viewBox="0 0 243 60" xmlns="http://www.w3.org/2000/svg"><g fill="#649653" fill-rule="nonzero"><path d="m.244-.491c-.046 0-.077.033-.077.078s.031.078.076.078c.046 0 .076-.033.076-.078s-.031-.078-.075-.078zm-.057.217v.021c.002.048-.013.09-.053.136-.043.049-.086.098-.086.171 0 .08.057.152.181.152.063 0 .121-.019.156-.041l-.029-.088c-.026.018-.066.03-.1.03-.056-.001-.083-.029-.083-.071 0-.039.025-.075.063-.12.047-.056.065-.112.061-.164l-.002-.026z" transform="matrix(65.352968949 0 0 65.352968949 -2.29262989 46.22044625)"/><path d="m.673.01c-.055-.01-.12-.024-.178-.04v-.004c.099-.04.174-.149.174-.311 0-.191-.116-.341-.311-.341-.193 0-.322.146-.322.355 0 .219.139.334.295.342.015.001.03.004.044.01.085.033.169.061.263.087zm-.32-.098c-.118 0-.187-.112-.187-.247s.065-.252.188-.252c.122 0 .185.119.185.247 0 .142-.068.252-.186.252z" transform="matrix(65.352968949 0 0 65.352968949 25.678642487 46.22044625)"/><path d="m.502-.487h-.123v.294c0 .014-.002.028-.007.038-.012.032-.044.066-.094.066-.065 0-.091-.052-.091-.133v-.265h-.123v.286c0 .159.081.212.169.212s.136-.05.157-.084h.003l.006.073h.107c-.002-.04-.004-.088-.004-.146z" transform="matrix(65.352968949 0 0 65.352968949 71.948262836 46.22044625)"/><path d="m.479-.209c.002-.011.004-.029.004-.052 0-.107-.052-.237-.21-.237-.156 0-.238.127-.238.262 0 .149.093.246.251.246.07 0 .128-.013.17-.031l-.018-.084c-.038.013-.078.022-.135.022-.079 0-.147-.038-.15-.126zm-.326-.086c.005-.05.037-.119.113-.119.082 0 .102.074.101.119zm.149-.403-.087.148h.085l.122-.148z" transform="matrix(65.352968949 0 0 65.352968949 109.134125918 46.22044625)"/><path d="m.479-.209c.002-.011.004-.029.004-.052 0-.107-.052-.237-.21-.237-.156 0-.238.127-.238.262 0 .149.093.246.251.246.07 0 .128-.013.17-.031l-.018-.084c-.038.013-.078.022-.135.022-.079 0-.147-.038-.15-.126zm-.326-.086c.005-.05.037-.119.113-.119.082 0 .102.074.101.119z" transform="matrix(65.352968949 0 0 65.352968949 156.384580385 46.22044625)"/><path d="m.036-.024c.036.02.089.034.148.034.129 0 .198-.064.198-.153-.001-.072-.041-.117-.13-.148-.062-.023-.085-.037-.085-.068 0-.03.024-.052.068-.052.043 0 .083.016.103.028l.025-.086c-.029-.016-.076-.029-.13-.029-.113 0-.184.066-.184.152 0 .058.039.11.134.142.06.022.08.038.08.071 0 .032-.024.055-.078.055-.044 0-.097-.019-.124-.036z" transform="matrix(65.352968949 0 0 65.352968949 190.10752403 46.22044625)"/><path d="m.248-.206v-.022c-.002-.048.013-.089.053-.135.043-.049.086-.098.086-.171 0-.08-.057-.152-.181-.152-.064 0-.121.018-.157.041l.03.088c.025-.019.065-.03.1-.03.056.001.083.029.083.071 0 .039-.026.074-.064.12-.047.056-.065.111-.06.164l.001.026zm-.058.217c.047 0 .077-.034.077-.078-.001-.046-.031-.078-.076-.078-.044 0-.076.032-.076.078 0 .044.031.078.075.078z" transform="matrix(65.352968949 0 0 65.352968949 217.35754583 46.22044625)"/></g></svg>

<?xml version="1.0" encoding="UTF-8" standalone="no"?>
<!DOCTYPE svg PUBLIC "-//W3C//DTD SVG 1.1//EN" "http://www.w3.org/Graphics/SVG/1.1/DTD/svg11.dtd">
<svg width="100%" height="100%" viewBox="0 0 243 60" version="1.1" xmlns="http://www.w3.org/2000/svg" xmlns:xlink="http://www.w3.org/1999/xlink" xml:space="preserve" xmlns:serif="http://www.serif.com/" style="fill-rule:evenodd;clip-rule:evenodd;stroke-linejoin:round;stroke-miterlimit:2;">
    <g transform="matrix(1,0,0,1,-828,-371)">
        <g transform="matrix(4.16667,0,0,4.16667,571.403,-1182.26)">
            <g transform="matrix(15.6847,0,0,15.6847,61.033,383.875)">
                <path d="M0.244,-0.491C0.198,-0.491 0.167,-0.458 0.167,-0.413C0.167,-0.368 0.198,-0.335 0.243,-0.335C0.289,-0.335 0.319,-0.368 0.319,-0.413C0.319,-0.458 0.288,-0.491 0.244,-0.491ZM0.187,-0.274L0.187,-0.253C0.189,-0.205 0.174,-0.163 0.134,-0.117C0.091,-0.068 0.048,-0.019 0.048,0.054C0.048,0.134 0.105,0.206 0.229,0.206C0.292,0.206 0.35,0.187 0.385,0.165L0.356,0.077C0.33,0.095 0.29,0.107 0.256,0.107C0.2,0.106 0.173,0.078 0.173,0.036C0.173,-0.003 0.198,-0.039 0.236,-0.084C0.283,-0.14 0.301,-0.196 0.297,-0.248L0.295,-0.274L0.187,-0.274Z" style="fill:rgb(100,150,83);fill-rule:nonzero;"/>
            </g>
            <g transform="matrix(15.6847,0,0,15.6847,67.7461,383.875)">
                <path d="M0.673,0.01C0.618,0 0.553,-0.014 0.495,-0.03L0.495,-0.034C0.594,-0.074 0.669,-0.183 0.669,-0.345C0.669,-0.536 0.553,-0.686 0.358,-0.686C0.165,-0.686 0.036,-0.54 0.036,-0.331C0.036,-0.112 0.175,0.003 0.331,0.011C0.346,0.012 0.361,0.015 0.375,0.021C0.46,0.054 0.544,0.082 0.638,0.108L0.673,0.01ZM0.353,-0.088C0.235,-0.088 0.166,-0.2 0.166,-0.335C0.166,-0.47 0.231,-0.587 0.354,-0.587C0.476,-0.587 0.539,-0.468 0.539,-0.34C0.539,-0.198 0.471,-0.088 0.353,-0.088Z" style="fill:rgb(100,150,83);fill-rule:nonzero;"/>
            </g>
            <g transform="matrix(15.6847,0,0,15.6847,78.8508,383.875)">
                <path d="M0.502,-0.487L0.379,-0.487L0.379,-0.193C0.379,-0.179 0.377,-0.165 0.372,-0.155C0.36,-0.123 0.328,-0.089 0.278,-0.089C0.213,-0.089 0.187,-0.141 0.187,-0.222L0.187,-0.487L0.064,-0.487L0.064,-0.201C0.064,-0.042 0.145,0.011 0.233,0.011C0.321,0.011 0.369,-0.039 0.39,-0.073L0.393,-0.073L0.399,0L0.506,0C0.504,-0.04 0.502,-0.088 0.502,-0.146L0.502,-0.487Z" style="fill:rgb(100,150,83);fill-rule:nonzero;"/>
            </g>
            <g transform="matrix(15.6847,0,0,15.6847,87.7754,383.875)">
                <path d="M0.479,-0.209C0.481,-0.22 0.483,-0.238 0.483,-0.261C0.483,-0.368 0.431,-0.498 0.273,-0.498C0.117,-0.498 0.035,-0.371 0.035,-0.236C0.035,-0.087 0.128,0.01 0.286,0.01C0.356,0.01 0.414,-0.003 0.456,-0.021L0.438,-0.105C0.4,-0.092 0.36,-0.083 0.303,-0.083C0.224,-0.083 0.156,-0.121 0.153,-0.209L0.479,-0.209ZM0.153,-0.295C0.158,-0.345 0.19,-0.414 0.266,-0.414C0.348,-0.414 0.368,-0.34 0.367,-0.295L0.153,-0.295ZM0.302,-0.698L0.215,-0.55L0.3,-0.55L0.422,-0.698L0.302,-0.698Z" style="fill:rgb(100,150,83);fill-rule:nonzero;"/>
            </g>
            <g transform="matrix(15.6847,0,0,15.6847,99.1155,383.875)">
                <path d="M0.479,-0.209C0.481,-0.22 0.483,-0.238 0.483,-0.261C0.483,-0.368 0.431,-0.498 0.273,-0.498C0.117,-0.498 0.035,-0.371 0.035,-0.236C0.035,-0.087 0.128,0.01 0.286,0.01C0.356,0.01 0.414,-0.003 0.456,-0.021L0.438,-0.105C0.4,-0.092 0.36,-0.083 0.303,-0.083C0.224,-0.083 0.156,-0.121 0.153,-0.209L0.479,-0.209ZM0.153,-0.295C0.158,-0.345 0.19,-0.414 0.266,-0.414C0.348,-0.414 0.368,-0.34 0.367,-0.295L0.153,-0.295Z" style="fill:rgb(100,150,83);fill-rule:nonzero;"/>
            </g>
            <g transform="matrix(15.6847,0,0,15.6847,107.209,383.875)">
                <path d="M0.036,-0.024C0.072,-0.004 0.125,0.01 0.184,0.01C0.313,0.01 0.382,-0.054 0.382,-0.143C0.381,-0.215 0.341,-0.26 0.252,-0.291C0.19,-0.314 0.167,-0.328 0.167,-0.359C0.167,-0.389 0.191,-0.411 0.235,-0.411C0.278,-0.411 0.318,-0.395 0.338,-0.383L0.363,-0.469C0.334,-0.485 0.287,-0.498 0.233,-0.498C0.12,-0.498 0.049,-0.432 0.049,-0.346C0.049,-0.288 0.088,-0.236 0.183,-0.204C0.243,-0.182 0.263,-0.166 0.263,-0.133C0.263,-0.101 0.239,-0.078 0.185,-0.078C0.141,-0.078 0.088,-0.097 0.061,-0.114L0.036,-0.024Z" style="fill:rgb(100,150,83);fill-rule:nonzero;"/>
            </g>
            <g transform="matrix(15.6847,0,0,15.6847,113.749,383.875)">
                <path d="M0.248,-0.206L0.248,-0.228C0.246,-0.276 0.261,-0.317 0.301,-0.363C0.344,-0.412 0.387,-0.461 0.387,-0.534C0.387,-0.614 0.33,-0.686 0.206,-0.686C0.142,-0.686 0.085,-0.668 0.049,-0.645L0.079,-0.557C0.104,-0.576 0.144,-0.587 0.179,-0.587C0.235,-0.586 0.262,-0.558 0.262,-0.516C0.262,-0.477 0.236,-0.442 0.198,-0.396C0.151,-0.34 0.133,-0.285 0.138,-0.232L0.139,-0.206L0.248,-0.206ZM0.19,0.011C0.237,0.011 0.267,-0.023 0.267,-0.067C0.266,-0.113 0.236,-0.145 0.191,-0.145C0.147,-0.145 0.115,-0.113 0.115,-0.067C0.115,-0.023 0.146,0.011 0.19,0.011Z" style="fill:rgb(100,150,83);fill-rule:nonzero;"/>
            </g>
        </g>
    </g>
</svg>
